src/icons/svgs/24/right-from-bracket.svg

<svg width="24" height="24" viewBox="0 0 24 24" fill="none" xmlns="http://www.w3.org/2000/svg">
<path d="M8.5625 19.0714H5.75C4.71875 19.0714 3.875 18.2036 3.875 17.1429V6.85714C3.875 5.79643 4.71875 4.92857 5.75 4.92857H8.5625C9.08203 4.92857 9.5 4.49665 9.5 3.96429C9.5 3.43152 9.08203 3 8.5625 3H5.75C3.67891 3 2 4.72687 2 6.85714V17.1429C2 19.2731 3.67891 21 5.75 21H8.5625C9.08203 21 9.5 20.5701 9.5 20.0357C9.5 19.5013 9.08203 19.0714 8.5625 19.0714ZM21.6836 11.3009L15.7305 5.90893C15.3459 5.55737 14.793 5.47179 14.3207 5.68919C13.8594 5.90491 13.5625 6.37098 13.5625 6.88527V9.10754H8.875C8.01328 9.10754 7.3125 9.82835 7.3125 10.7147V13.2861C7.3125 14.1725 8.01328 14.8933 8.875 14.8933H13.5625V17.1155C13.5625 17.6278 13.8604 18.0963 14.3207 18.3096C14.4941 18.39 14.6784 18.4289 14.8613 18.4289C15.1763 18.4289 15.4875 18.3122 15.7305 18.0899L21.6836 12.7421C21.8867 12.5585 22 12.2973 22 12.0201C22 11.7429 21.8867 11.4817 21.6836 11.3009ZM15.4375 15.7768V12.9281H9.1875V10.9996H15.4375V8.18705L19.6484 11.9855L15.4375 15.7768Z" fill="black"/>
</svg>

<svg width="24" height="24" viewBox="0 0 24 24" xmlns="http://www.w3.org/2000/svg">
    <path d="M8.563 19.071H5.75c-1.031 0-1.875-.867-1.875-1.928V6.857c0-1.06.844-1.928 1.875-1.928h2.813a.95.95 0 0 0 .937-.965A.95.95 0 0 0 8.562 3H5.75C3.679 3 2 4.727 2 6.857v10.286C2 19.273 3.679 21 5.75 21h2.813c.519 0 .937-.43.937-.964a.949.949 0 0 0-.938-.965zm13.12-7.77L15.73 5.909a1.287 1.287 0 0 0-1.41-.22 1.32 1.32 0 0 0-.758 1.196v2.223H8.875c-.862 0-1.563.72-1.563 1.607v2.571c0 .886.701 1.607 1.563 1.607h4.688v2.223c0 .512.297.98.758 1.194a1.283 1.283 0 0 0 1.41-.22l5.953-5.348A.968.968 0 0 0 22 12.02a.958.958 0 0 0-.316-.72zm-6.245 4.476v-2.849h-6.25V11h6.25V8.187l4.21 3.799-4.21 3.79z"/>
</svg>
